X:75
T:Violan Masurkka
M:3/4
L:1/8
Q:1/4=150
R:masurkka
K:Em
|: "Em" B,>E G>B A>G | "Am" F>G A2 F2 | "B" B,>^D F>A G>F | "Em" G>A B4 | !
B,>E G>B A>G | "Am" F>G A2 F2 | "B" B,>^D F>A G>F | "Em" E2 E4 :|| !
|: "Em" B>A B>A B>c | "Am" A>G F2 F2 | A>G A2 B2 | "Em" G>F E2 G2 | !
B,>E G>B A>G | "Am" F>G A2 F2 | "B" B,>^D F>A G>F |[1 "Em" G>A B4 :|
[2 "Em" E2 E4 ||
